media/theme/theme-3/line.svg

<svg fill="none" height="21" viewBox="0 0 172 21" width="172" xmlns="http://www.w3.org/2000/svg"><path clip-rule="evenodd" d="m171.871 9v.1c-.144.11263-.228.3013-.355.43333-.392.40884-.844.85537-1.29 1.19997-1.404 1.0869-2.894 2.02-4.643 2.7667-.899.3837-1.898.5647-2.902.8333-.574.1537-1.197.0645-1.806.2-.518.1155-1.773.1206-2.289 0-.542-.1264-1.028-.0233-1.516-.1666-1.317-.3867-2.529-.8379-3.579-1.5-.228-.1434-.482-.1903-.71-.3334-.684-.4298-1.433-.7627-2.128-1.2-2.117-1.332-4.515-2.61663-6.9-3.6333-.621-.26443-1.313-.32743-2.032-.5-.297-.07137-.658-.0015-.935-.06667-.306-.07213-1.319.0383-1.58.1-.358.08434-.663.01194-1 .1-.864.2261-1.76.36477-2.547.63334-.403.13726-.78.17116-1.161.33333-1.981.84287-3.962 1.633-5.708 2.7333-.529.3338-1.115.501-1.644.8334-.74.4647-1.568.7935-2.322 1.2666-.363.2278-.902.6131-1.322.7334.011.0111.022.0222.032.0333.134.1253.302.1505.484.2333.445.2029.881.4515 1.354.6667.745.3382 1.502.6609 2.387.9 1.208.3267 3.119-.1959 3.998-.5 3.209-1.1104 5.819-2.7167 8.642-4.2333 1.076-.5782 2.091-1.03703 3.418-1.40003.588-.1609 1.506-.1996 2.096 0 .376.12703.779.29333 1.096.50003.575.3742 1.141.9217 1.419 1.6.397.9683.204 3.0614-.226 3.8-.741 1.2733-1.975 1.91-3.579 2.3-.452.1098-1.054.0111-1.419-.1-1.17-.3567-2.132-.9175-2.483-2.1-.293-.9913.358-2.1887.968-2.3667.184-.0539.363.0369.483.0667.171.2617.385.3419.387.8-.279.2221-.49.5463-.741.8.01.942 1.354 1.4622 2.321 1.1333 1.179-.4006 2.374-2.8188 1.032-3.8667-.275-.2152-.601-.4187-.967-.5333-.393-.123-.928.0049-1.225.1-.824.2603-1.632.5719-2.419.9333-1.401.6394-2.738 1.4994-4.127 2.1334-1.067.4869-2.131.9682-3.225 1.4333-.959.4077-1.998.5661-3.096.8333-.407.0991-.804.0414-1.257.0667-1.696.0947-2.663-.4789-3.805-1-.474-.2162-.921-.3947-1.354-.6667-.367-.23-1.242-.8972-1.645-.9666-.142.1116-.337.1222-.516.2-.453.1969-.925.3446-1.419.5333-1.603.6131-3.432.9995-5.611 1-1.02.0002-2.019.0365-2.837-.2-.902-.2597-1.785-.5827-2.644-.9667-.459-.2045-.915-.4071-1.419-.6-.112-.0427-.337-.1872-.516-.1333-.113.0338-.145.1376-.29.1667v-.0334c.092-.0696.147-.1429.161-.3-.95-.6061-3.034-1.4266-4.611-1-1.18.3192-2.217.7754-3.2572 1.2334-.8077.3554-1.6461.624-2.4506.9666-.8836.3763-1.859.5424-2.8377.8l-1.2253.1334c-.3828.091-1.3886-.0855-1.6768-.1667-.258-.0727-.466-.0503-.7094-.1333-1.1041-.3767-2.1386-.8615-2.9989-1.5-.3415-.2534-.8674-.9658-1.2254-1.1-.1396.2126-.3821.3784-.5804.5333-.2041.1594-.3692.41-.5804.5667-.3199.2374-.654.383-.9996.6-.5834.3659-1.2944.6637-1.9993.9-1.6258.545-3.8015.2182-5.2238-.2667-.9481-.3233-1.8213-.5548-2.7087-.9333-1.1963-.5102-2.412-1.0761-3.676-1.5-.3754-.1259-.8014-.1434-1.1931-.2334-.3231-.0742-.7888.0067-1.0319.0667l-.516.0667c-.5596.1646-1.1089.365-1.6445.6-1.3988.6107-2.7158 1.2042-4.1275 1.8-.6465.2728-1.3859.3866-2.096.5666-.6423.163-2.1846.2209-2.8699.0667-.5878-.1323-1.1241-.025-1.6768-.1667-1.3185-.3379-2.6293-.5359-3.805-1.0333-.4472-.1892-.9209-.3353-1.3866-.5333-.2112-.0899-.4185-.2257-.6771-.2667-.1103.1122-.2496.1439-.387.2333-.4772.3104-.9812.5846-1.4833.9-.9445.5934-2.0431 1.1925-3.1601 1.5667-.2783.0933-.5275.0616-.8384.1333-.5262.1215-1.3121.1591-1.8702.0334-.4415-.0994-.8159-.0251-1.2254-.1334-2.7709-.7323-5.0671-1.7723-7.3521-3-1.3041-.7006-2.6025-1.3306-4.0307-1.9333-.5082-.2144-1.3296-.6212-2.096-.4-.6925.2-1.2814.6959-1.5156 1.3667-.3289.9422.5669 2.4804 1.0641 2.8.9549.6136 2.7034.3268 2.8377-.8667-.1086-.1093-.75-.8053-.7739-.9-.0993-.3933.4528-.8053.8384-.8l.258.1c.2521.1611.555.5444.6771.8333.345.817-.0263 1.8325-.3869 2.3334-.8834 1.2266-3.0372 1.68-4.7079.9333-1.0193-.4555-1.9849-1.072-2.4185-2.1333-.1362-.3334-.1741-.725-.258-1.1-.0107-.3445-.0215-.6889-.0322-1.0334 0-1.9589 1.0057-2.8633 2.3217-3.4333 1.7879-.7746 3.9925.27 5.2238.9333 1.0043.541 2.0393.9639 2.9989 1.5667.7268.4567 1.5114.8152 2.2895 1.2333 1.5249.8195 3.1117 1.5337 4.9336 2.0667.3576.1046.7449.1155 1.0964.2l.9351.0333c.3973.0844 1.0425-.0293 1.3866-.1333 1.0699-.3233 1.909-.7375 2.8054-1.2.3618-.1867.7175-.3755 1.0641-.5333.1867-.085.4592-.1192.5482-.3-.2744-.067-.5511-.2924-.7739-.4334-.3589-.227-.752-.3824-1.0964-.6-.7507-.4744-1.6013-.76-2.3539-1.2333-.748-.4711-1.5234-.8942-2.3217-1.2667-1.0858-.496-2.1457-1.0228-3.2569-1.49997-.6978-.29966-1.4669-.4881-2.1927-.73333-.8768-.29623-1.8309-.3365-2.7732-.56667-.3956-.09666-.8425-.0086-1.2253-.1-.4302-.1027-1.5669.04874-1.9025.13334-.3985.10043-.7333.0757-1.0964.2-1.0207.35129-2.0127.78599-2.9666 1.3-1.4534.78123-2.9459 1.53193-4.321 2.40003-.3907.2466-.8009.3868-1.1931.6333-1.4842.9328-3.0936 1.7944-4.8691 2.4-1.9993.6819-5.80929.431-7.67455-.2-1.41809-.4797-2.74901-.9928-3.90177-1.7333-.66159-.425-1.29042-.8021-1.90251-1.2667-.31978-.2427-.58923-.588-.90289-.8333-.280536-.2195-.995558-.78613-1.064113-1.1667.423648.0586.711185.47813.999623.7.69329.5333 1.38926 1.0841 2.12824 1.5667 1.1337.7402 2.45046 1.2666 3.83727 1.7333.68635.2309 1.36113.222 2.12823.4.58968.1368 1.87797.2559 2.54747.1h.5481c.5864-.1378 1.2391-.0677 1.8058-.2333 2.6458-.7734 4.6228-2.2061 6.7072-3.5667 1.0825-.70667 2.2018-1.34687 3.2891-2.03333.4514-.28494.9309-.44724 1.3865-.73334.954-.599 2.0728-1.04606 3.2246-1.43333.2963-.0996.5525-.0863.8707-.16667.3167-.08 1.4063-.26 1.8058-.16666l1.709.13333c1.0873.26117 2.1921.295 3.1923.63333.752.2543 1.534.4562 2.2573.76667 2.2965.98597 4.4367 2.08263 6.5781 3.23333 1.159.62277 2.3395 1.20217 3.5148 1.83337.198.1063 1.0838.6514 1.2254.6.1999-.05.3479-.1897.5159-.2667.6833-.3133 1.3302-.664 1.9993-.9667.502-.227 1.037-.3526 1.6123-.5l.6127-.0333c.3095-.07.9161-.073 1.2253 0l1.1609.0333c.5739.1359 1.1805.1202 1.709.3.7881.2687 1.5538.6031 2.2895 1 .2166.1165 1.1998.7557 1.3543.7.3782-.101.7491-.4633 1.0641-.6666.919-.5935 1.9044-1.1934 2.9989-1.5667.2876-.0981.5443-.0584.8706-.1333.2899-.0667 1.3205-.1511 1.6768-.0667.4937.1169.98.0833 1.4188.2333 2.3185.7929 4.3116 1.8771 6.7717 2.5667 1.9947.5592 4.4496-.5643 5.1271-1.7.2831-.4745.3328-1.45763.1612-2.1-.3763-1.408-1.0248-2.42537-2.3217-2.86667-1.4614-.49726-2.6064.2658-3.0956 1.23334-.0684.13493-.1661.21703-.1935.4.3167.20933.9913.86626 1.0964 1.26666.1725.6562-.6349 1.26797-1.2254 1.06667-1.0844-.36967-1.8273-2.1471-1.2575-3.53333.6568-1.59847 1.9834-2.40847 3.7082-2.9.5105-.14544 1.3208-.08264 1.8058.03333.4602.11.8429.09333 1.2576.23333 1.0538.35564 1.9367.97567 2.7409 1.6.2257.23334.4514.46667.6772.7.1209.16844.2012.43687.3869.53334.1603-.50074.8349-1.06814 1.2254-1.36667.8977-.68667 1.8251-1.277 3.0633-1.63333 2.1831-.62814 4.7682.48603 5.6108 1.7.3996.57553 1.0793 1.82193.7417 2.9-.1406.44846-.3734.7689-.6127 1.1-.1864.25796-.6894.80893-1.2253.66663-.1691-.0499-.324-.1414-.4515-.2666-.0874-.08413-.2018-.1883-.2579-.30003-.4612-.91974.9138-1.35634 1.0318-1.9-.176-.18424-.2408-.4853-.3869-.7-.3328-.489-.8645-.76984-1.5156-.93334-.5717-.14356-1.255.0618-1.6445.23334-1.1493.50633-1.7174 1.39123-2.0638 2.73333-.1173.4553-.1644 1.2705 0 1.7333.0932.2625.2648.521.4192.7334.1632.2241.4466.3749.6772.5333.8823.6064 2.6387 1.2358 4.192.8 2.4603-.6902 4.4515-1.7786 6.7716-2.5667.439-.1491.925-.1174 1.419-.2333.307-.072 1.126-.0275 1.386.0333.362.0846.667-.0024.968.1.941.32 1.845.7936 2.644 1.3.294.1867.793.6541 1.161.7.3-.2804 1.101-.5784 1.515-.7666.282-.1283.606-.3065.903-.4334.457-.1945.981-.2711 1.484-.4l1.257-.1333h.742c.508-.1137 1.54-.057 1.999.0667 1.113.2996 2.024.7421 2.934 1.2333.39.21 1.202.4867 1.484.7667 3.651-1.612 6.894-3.7545 10.512-5.40003 1.078-.49 2.165-.7973 3.354-1.2.918-.311 1.961-.44237 2.966-.7.443-.1135.859-.0284 1.322-.13334.576-.13023 1.875-.15146 2.451 0 .729.1918 1.469.3181 2.128.6 2.196.93857 4.161 2.12507 6.062 3.36667 1.276.8328 2.575 1.5487 3.87 2.3667 1.005.6348 2.057 1.1868 3.289 1.6.575.1928 1.2.1209 1.838.2666.516.1179 1.138.1 1.741.1h.581c.729-.1723 1.502-.08 2.192-.2666 1.58-.4277 3.077-.8504 4.321-1.6334.837-.5259 1.647-1.0755 2.419-1.66663.382-.2924.782-.87784 1.322-.96667zm-58.397 2.3c-.101.0603-.278-.0018-.42.0333-.271.0675-.582.1097-.87.2-.915.2871-1.842.5453-2.548 1.0334v.0666c.383.2254.777.5106 1.193.7.568.2587 1.204.4226 1.838.6 1.594.4455 4.231.2005 5.611-.2333.484-.1521.954-.2511 1.387-.4.165-.0567.327-.0403.451-.1333-.345-.16-.656-.4029-.967-.6-.616-.3895-1.537-.7861-2.257-1.0334-.929-.3184-2.233-.2317-3.418-.2333zm-58.2689.0333c-.179.1067-.8826.0828-1.1286.1667-.654.223-1.2937.5559-1.8703.8667-.2554.1377-.8042.2856-.8706.6.2728.06.5256.2133.7739.3.4917.1713.9989.2896 1.4833.4333 1.8332.5441 4.6195.6481 6.4169.0333.5718-.1955 1.0593-.345 1.5156-.6333.1522-.0961.2789-.05.3224-.2667-.2782-.1416-.5459-.3676-.8383-.5-.6803-.3064-1.3807-.5626-2.096-.7666-1.0142-.2908-2.4556-.2187-3.7083-.2334z" fill="#000" fill-rule="evenodd"/></svg>

<svg width="172" height="21" viewBox="0 0 172 21" fill="none" xmlns="http://www.w3.org/2000/svg">
<path fill-rule="evenodd" clip-rule="evenodd" d="M171.871 9V9.1C171.727 9.21263 171.643 9.4013 171.516 9.53333C171.124 9.94217 170.672 10.3887 170.226 10.7333C168.822 11.8202 167.332 12.7533 165.583 13.5C164.684 13.8837 163.685 14.0647 162.681 14.3333C162.107 14.487 161.484 14.3978 160.875 14.5333C160.357 14.6488 159.102 14.6539 158.586 14.5333C158.044 14.4069 157.558 14.51 157.07 14.3667C155.753 13.98 154.541 13.5288 153.491 12.8667C153.263 12.7233 153.009 12.6764 152.781 12.5333C152.097 12.1035 151.348 11.7706 150.653 11.3333C148.536 10.0013 146.138 8.71667 143.753 7.7C143.132 7.43557 142.44 7.37257 141.721 7.2C141.424 7.12863 141.063 7.1985 140.786 7.13333C140.48 7.0612 139.467 7.17163 139.206 7.23333C138.848 7.31767 138.543 7.24527 138.206 7.33333C137.342 7.55943 136.446 7.6981 135.659 7.96667C135.256 8.10393 134.879 8.13783 134.498 8.3C132.517 9.14287 130.536 9.933 128.79 11.0333C128.261 11.3671 127.675 11.5343 127.146 11.8667C126.406 12.3314 125.578 12.6602 124.824 13.1333C124.461 13.3611 123.922 13.7464 123.502 13.8667C123.513 13.8778 123.524 13.8889 123.534 13.9C123.668 14.0253 123.836 14.0505 124.018 14.1333C124.463 14.3362 124.899 14.5848 125.372 14.8C126.117 15.1382 126.874 15.4609 127.759 15.7C128.967 16.0267 130.878 15.5041 131.757 15.2C134.966 14.0896 137.576 12.4833 140.399 10.9667C141.475 10.3885 142.49 9.92967 143.817 9.56667C144.405 9.40577 145.323 9.36707 145.913 9.56667C146.289 9.6937 146.692 9.86 147.009 10.0667C147.584 10.4409 148.15 10.9884 148.428 11.6667C148.825 12.635 148.632 14.7281 148.202 15.4667C147.461 16.74 146.227 17.3767 144.623 17.7667C144.171 17.8765 143.569 17.7778 143.204 17.6667C142.034 17.31 141.072 16.7492 140.721 15.5667C140.428 14.5754 141.079 13.378 141.689 13.2C141.873 13.1461 142.052 13.2369 142.172 13.2667C142.343 13.5284 142.557 13.6086 142.559 14.0667C142.28 14.2888 142.069 14.613 141.818 14.8667C141.828 15.8087 143.172 16.3289 144.139 16C145.318 15.5994 146.513 13.1812 145.171 12.1333C144.896 11.9181 144.57 11.7146 144.204 11.6C143.811 11.477 143.276 11.6049 142.979 11.7C142.155 11.9603 141.347 12.2719 140.56 12.6333C139.159 13.2727 137.822 14.1327 136.433 14.7667C135.366 15.2536 134.302 15.7349 133.208 16.2C132.249 16.6077 131.21 16.7661 130.112 17.0333C129.705 17.1324 129.308 17.0747 128.855 17.1C127.159 17.1947 126.192 16.6211 125.05 16.1C124.576 15.8838 124.129 15.7053 123.696 15.4333C123.329 15.2033 122.454 14.5361 122.051 14.4667C121.909 14.5783 121.714 14.5889 121.535 14.6667C121.082 14.8636 120.61 15.0113 120.116 15.2C118.513 15.8131 116.684 16.1995 114.505 16.2C113.485 16.2002 112.486 16.2365 111.668 16C110.766 15.7403 109.883 15.4173 109.024 15.0333C108.565 14.8288 108.109 14.6262 107.605 14.4333C107.493 14.3906 107.268 14.2461 107.089 14.3C106.976 14.3338 106.944 14.4376 106.799 14.4667V14.4333C106.891 14.3637 106.946 14.2904 106.96 14.1333C106.01 13.5272 103.926 12.7067 102.349 13.1333C101.169 13.4525 100.132 13.9087 99.0918 14.3667C98.2841 14.7221 97.4457 14.9907 96.6412 15.3333C95.7576 15.7096 94.7822 15.8757 93.8035 16.1333L92.5782 16.2667C92.1954 16.3577 91.1896 16.1812 90.9014 16.1C90.6434 16.0273 90.4354 16.0497 90.192 15.9667C89.0879 15.59 88.0534 15.1052 87.1931 14.4667C86.8516 14.2133 86.3257 13.5009 85.9677 13.3667C85.8281 13.5793 85.5856 13.7451 85.3873 13.9C85.1832 14.0594 85.0181 14.31 84.8069 14.4667C84.487 14.7041 84.1529 14.8497 83.8073 15.0667C83.2239 15.4326 82.5129 15.7304 81.808 15.9667C80.1822 16.5117 78.0065 16.1849 76.5842 15.7C75.6361 15.3767 74.7629 15.1452 73.8755 14.7667C72.6792 14.2565 71.4635 13.6906 70.1995 13.2667C69.8241 13.1408 69.3981 13.1233 69.0064 13.0333C68.6833 12.9591 68.2176 13.04 67.9745 13.1L67.4585 13.1667C66.8989 13.3313 66.3496 13.5317 65.814 13.7667C64.4152 14.3774 63.0982 14.9709 61.6865 15.5667C61.04 15.8395 60.3006 15.9533 59.5905 16.1333C58.9482 16.2963 57.4059 16.3542 56.7206 16.2C56.1328 16.0677 55.5965 16.175 55.0438 16.0333C53.7253 15.6954 52.4145 15.4974 51.2388 15C50.7916 14.8108 50.3179 14.6647 49.8522 14.4667C49.641 14.3768 49.4337 14.241 49.1751 14.2C49.0648 14.3122 48.9255 14.3439 48.7881 14.4333C48.3109 14.7437 47.8069 15.0179 47.3048 15.3333C46.3603 15.9267 45.2617 16.5258 44.1447 16.9C43.8664 16.9933 43.6172 16.9616 43.3063 17.0333C42.7801 17.1548 41.9942 17.1924 41.4361 17.0667C40.9946 16.9673 40.6202 17.0416 40.2107 16.9333C37.4398 16.201 35.1436 15.161 32.8586 13.9333C31.5545 13.2327 30.2561 12.6027 28.8279 12C28.3197 11.7856 27.4983 11.3788 26.7319 11.6C26.0394 11.8 25.4505 12.2959 25.2163 12.9667C24.8874 13.9089 25.7832 15.4471 26.2804 15.7667C27.2353 16.3803 28.9838 16.0935 29.1181 14.9C29.0095 14.7907 28.3681 14.0947 28.3442 14C28.2449 13.6067 28.797 13.1947 29.1826 13.2L29.4406 13.3C29.6927 13.4611 29.9956 13.8444 30.1177 14.1333C30.4627 14.9503 30.0914 15.9658 29.7308 16.4667C28.8474 17.6933 26.6936 18.1467 25.0229 17.4C24.0036 16.9445 23.038 16.328 22.6044 15.2667C22.4682 14.9333 22.4303 14.5417 22.3464 14.1667C22.3357 13.8222 22.3249 13.4778 22.3142 13.1333C22.3142 11.1744 23.3199 10.27 24.6359 9.7C26.4238 8.9254 28.6284 9.97 29.8597 10.6333C30.864 11.1743 31.899 11.5972 32.8586 12.2C33.5854 12.6567 34.37 13.0152 35.1481 13.4333C36.673 14.2528 38.2598 14.967 40.0817 15.5C40.4393 15.6046 40.8266 15.6155 41.1781 15.7L42.1132 15.7333C42.5105 15.8177 43.1557 15.704 43.4998 15.6C44.5697 15.2767 45.4088 14.8625 46.3052 14.4C46.667 14.2133 47.0227 14.0245 47.3693 13.8667C47.556 13.7817 47.8285 13.7475 47.9175 13.5667C47.6431 13.4997 47.3664 13.2743 47.1436 13.1333C46.7847 12.9063 46.3916 12.7509 46.0472 12.5333C45.2965 12.0589 44.4459 11.7733 43.6933 11.3C42.9453 10.8289 42.1699 10.4058 41.3716 10.0333C40.2858 9.5373 39.2259 9.0105 38.1147 8.53333C37.4169 8.23367 36.6478 8.04523 35.922 7.8C35.0452 7.50377 34.0911 7.4635 33.1488 7.23333C32.7532 7.13667 32.3063 7.22473 31.9235 7.13333C31.4933 7.03063 30.3566 7.18207 30.021 7.26667C29.6225 7.3671 29.2877 7.34237 28.9246 7.46667C27.9039 7.81796 26.9119 8.25266 25.958 8.76667C24.5046 9.5479 23.0121 10.2986 21.637 11.1667C21.2463 11.4133 20.8361 11.5535 20.4439 11.8C18.9597 12.7328 17.3503 13.5944 15.5748 14.2C13.5755 14.8819 9.76551 14.631 7.90025 14C6.48216 13.5203 5.15124 13.0072 3.99848 12.2667C3.33689 11.8417 2.70806 11.4646 2.09597 11C1.77619 10.7573 1.50674 10.412 1.19308 10.1667C0.912544 9.9472 0.197522 9.38057 0.128967 9C0.552615 9.0586 0.840152 9.47813 1.12859 9.7C1.82188 10.2333 2.51785 10.7841 3.25683 11.2667C4.39053 12.0069 5.70729 12.5333 7.0941 13C7.78045 13.2309 8.45523 13.222 9.22233 13.4C9.81201 13.5368 11.1003 13.6559 11.7698 13.5H12.3179C12.9043 13.3622 13.557 13.4323 14.1237 13.2667C16.7695 12.4933 18.7465 11.0606 20.8309 9.7C21.9134 8.99333 23.0327 8.35313 24.12 7.66667C24.5714 7.38173 25.0509 7.21943 25.5065 6.93333C26.4605 6.33433 27.5793 5.88727 28.7311 5.5C29.0274 5.4004 29.2836 5.4137 29.6018 5.33333C29.9185 5.25333 31.0081 5.07333 31.4076 5.16667L33.1166 5.3C34.2039 5.56117 35.3087 5.595 36.3089 5.93333C37.0609 6.18763 37.8429 6.38953 38.5662 6.7C40.8627 7.68597 43.0029 8.78263 45.1443 9.93333C46.3033 10.5561 47.4838 11.1355 48.6591 11.7667C48.8571 11.873 49.7429 12.4181 49.8845 12.3667C50.0844 12.3167 50.2324 12.177 50.4004 12.1C51.0837 11.7867 51.7306 11.436 52.3997 11.1333C52.9017 10.9063 53.4367 10.7807 54.012 10.6333L54.6247 10.6C54.9342 10.53 55.5408 10.527 55.85 10.6L57.0109 10.6333C57.5848 10.7692 58.1914 10.7535 58.7199 10.9333C59.508 11.202 60.2737 11.5364 61.0094 11.9333C61.226 12.0498 62.2092 12.689 62.3637 12.6333C62.7419 12.5323 63.1128 12.17 63.4278 11.9667C64.3468 11.3732 65.3322 10.7733 66.4267 10.4C66.7143 10.3019 66.971 10.3416 67.2973 10.2667C67.5872 10.2 68.6178 10.1156 68.9741 10.2C69.4678 10.3169 69.9541 10.2833 70.3929 10.4333C72.7114 11.2262 74.7045 12.3104 77.1646 13C79.1593 13.5592 81.6142 12.4357 82.2917 11.3C82.5748 10.8255 82.6245 9.84237 82.4529 9.2C82.0766 7.792 81.4281 6.77463 80.1312 6.33333C78.6698 5.83607 77.5248 6.59913 77.0356 7.56667C76.9672 7.7016 76.8695 7.7837 76.8421 7.96667C77.1588 8.176 77.8334 8.83293 77.9385 9.23333C78.111 9.88953 77.3036 10.5013 76.7131 10.3C75.6287 9.93033 74.8858 8.1529 75.4556 6.76667C76.1124 5.1682 77.439 4.3582 79.1638 3.86667C79.6743 3.72123 80.4846 3.78403 80.9696 3.9C81.4298 4.01 81.8125 3.99333 82.2272 4.13333C83.281 4.48897 84.1639 5.109 84.9681 5.73333C85.1938 5.96667 85.4195 6.2 85.6453 6.43333C85.7662 6.60177 85.8465 6.8702 86.0322 6.96667C86.1925 6.46593 86.8671 5.89853 87.2576 5.6C88.1553 4.91333 89.0827 4.323 90.3209 3.96667C92.504 3.33853 95.0891 4.4527 95.9317 5.66667C96.3313 6.2422 97.011 7.4886 96.6734 8.56667C96.5328 9.01513 96.3 9.33557 96.0607 9.66667C95.8743 9.92463 95.3713 10.4756 94.8354 10.3333C94.6663 10.2834 94.5114 10.1919 94.3839 10.0667C94.2965 9.98257 94.1821 9.8784 94.126 9.76667C93.6648 8.84693 95.0398 8.41033 95.1578 7.86667C94.9818 7.68243 94.917 7.38137 94.7709 7.16667C94.4381 6.67767 93.9064 6.39683 93.2553 6.23333C92.6836 6.08977 92.0003 6.29513 91.6108 6.46667C90.4615 6.973 89.8934 7.8579 89.547 9.2C89.4297 9.6553 89.3826 10.4705 89.547 10.9333C89.6402 11.1958 89.8118 11.4543 89.9662 11.6667C90.1294 11.8908 90.4128 12.0416 90.6434 12.2C91.5257 12.8064 93.2821 13.4358 94.8354 13C97.2957 12.3098 99.2869 11.2214 101.607 10.4333C102.046 10.2842 102.532 10.3159 103.026 10.2C103.333 10.128 104.152 10.1725 104.412 10.2333C104.774 10.3179 105.079 10.2309 105.38 10.3333C106.321 10.6533 107.225 11.1269 108.024 11.6333C108.318 11.82 108.817 12.2874 109.185 12.3333C109.485 12.0529 110.286 11.7549 110.7 11.5667C110.982 11.4384 111.306 11.2602 111.603 11.1333C112.06 10.9388 112.584 10.8622 113.087 10.7333L114.344 10.6H115.086C115.594 10.4863 116.626 10.543 117.085 10.6667C118.198 10.9663 119.109 11.4088 120.019 11.9C120.409 12.11 121.221 12.3867 121.503 12.6667C125.154 11.0547 128.397 8.9122 132.015 7.26667C133.093 6.77667 134.18 6.46937 135.369 6.06667C136.287 5.75567 137.33 5.6243 138.335 5.36667C138.778 5.25317 139.194 5.33827 139.657 5.23333C140.233 5.1031 141.532 5.08187 142.108 5.23333C142.837 5.42513 143.577 5.55143 144.236 5.83333C146.432 6.7719 148.397 7.9584 150.298 9.2C151.574 10.0328 152.873 10.7487 154.168 11.5667C155.173 12.2015 156.225 12.7535 157.457 13.1667C158.032 13.3595 158.657 13.2876 159.295 13.4333C159.811 13.5512 160.433 13.5333 161.036 13.5333H161.617C162.346 13.361 163.119 13.4533 163.809 13.2667C165.389 12.839 166.886 12.4163 168.13 11.6333C168.967 11.1074 169.777 10.5578 170.549 9.96667C170.931 9.67427 171.331 9.08883 171.871 9ZM113.474 11.3C113.373 11.3603 113.196 11.2982 113.054 11.3333C112.783 11.4008 112.472 11.443 112.184 11.5333C111.269 11.8204 110.342 12.0786 109.636 12.5667V12.6333C110.019 12.8587 110.413 13.1439 110.829 13.3333C111.397 13.592 112.033 13.7559 112.667 13.9333C114.261 14.3788 116.898 14.1338 118.278 13.7C118.762 13.5479 119.232 13.4489 119.665 13.3C119.83 13.2433 119.992 13.2597 120.116 13.1667C119.771 13.0067 119.46 12.7638 119.149 12.5667C118.533 12.1772 117.612 11.7806 116.892 11.5333C115.963 11.2149 114.659 11.3016 113.474 11.3ZM55.2051 11.3333C55.0261 11.44 54.3225 11.4161 54.0765 11.5C53.4225 11.723 52.7828 12.0559 52.2062 12.3667C51.9508 12.5044 51.402 12.6523 51.3356 12.9667C51.6084 13.0267 51.8612 13.18 52.1095 13.2667C52.6012 13.438 53.1084 13.5563 53.5928 13.7C55.426 14.2441 58.2123 14.3481 60.0097 13.7333C60.5815 13.5378 61.069 13.3883 61.5253 13.1C61.6775 13.0039 61.8042 13.05 61.8477 12.8333C61.5695 12.6917 61.3018 12.4657 61.0094 12.3333C60.3291 12.0269 59.6287 11.7707 58.9134 11.5667C57.8992 11.2759 56.4578 11.348 55.2051 11.3333Z" fill="black"/>
</svg>
